; generated by PrusaSlicer 2.7.1+win64 on 2025-03-24 at 12:16:09 UTC


;
;
; 

; external perimeters extrusion width = 0.45mm
; perimeters extrusion width = 0.45mm
; infill extrusion width = 0.45mm
; solid infill extrusion width = 0.45mm
; top infill extrusion width = 0.40mm
; first layer extrusion width = 0.42mm

M73 P0 R58
M73 Q0 S59
M201 X1000 Y1000 Z200 E5000 ; sets maximum accelerations, mm/sec^2
M203 X200 Y200 Z12 E120 ; sets maximum feedrates, mm / sec
M204 S1250 T1250 ; sets acceleration (S) and retract acceleration (R), mm/sec^2
M205 X8.00 Y8.00 Z0.40 E4.50 ; sets the jerk limits, mm/sec
M205 S0 T0 ; sets the minimum extruding and travel feed rate, mm/sec

; printing object post sana.STL id:0 copy 0
; stop printing object post sana.STL id:0 copy 0

;TYPE:Custom
M862.3 P "MK3S" ; printer model check
M862.1 P0.4 ; nozzle diameter check
M115 U3.13.2 ; tell printer latest fw version
G90 ; use absolute coordinates
M83 ; extruder relative mode
M104 S215 ; set extruder temp
M140 S60 ; set bed temp
M190 S60 ; wait for bed temp
M109 S215 ; wait for extruder temp
G28 W ; home all without mesh bed level
G80 X106.184 Y86.1844 W37.6312 H37.6312 ; mesh bed levelling

G1 Z0.2 F720
G1 Y-3 F1000 ; go outside print area
G92 E0
G1 X60 E9 F1000 ; intro line
G1 X100 E12.5 F1000 ; intro line

G92 E0
M221 S95

; Don't change E values below. Excessive value can damage the printer.
M907 E430 ; set extruder motor current
G21 ; set units to millimeters
G90 ; use absolute coordinates
M83 ; use relative distances for extrusion
M900 K0.05 ; Filament gcode LA 1.5
M900 K30 ; Filament gcode LA 1.0

M107
;LAYER_CHANGE
;Z:0.2
;HEIGHT:0.2
;BEFORE_LAYER_CHANGE
G92 E0.0
;0.2


G1 E-.8 F2100
G1 Z.2 F720
;AFTER_LAYER_CHANGE
;0.2
G1 X107.515 Y88.443 F10800
G1 Z.2 F720
G1 E.8 F2100
M204 S800
;TYPE:Skirt/Brim
;WIDTH:0.42
G1 F1200
G1 X108.115 Y87.795 E.02769
G1 X109.146 Y87.05 E.03988
G1 X110.268 Y86.585 E.03808
G1 X111.564 Y86.38 E.04114
G1 X138.437 Y86.38 E.84258
G1 X139.274 Y86.476 E.02642
G1 X140.124 Y86.716 E.02769
G1 X141.255 Y87.296 E.03985
G1 X141.915 Y87.821 E.02644
G1 X142.485 Y88.443 E.02645
G1 X142.95 Y89.146 E.02643
G1 X143.415 Y90.268 E.03808
G1 X143.583 Y91.094 E.02643
G1 X143.627 Y118.25 E.85146
G1 X143.524 Y119.274 E.03227
M73 Q0 S58
G1 X143.299 Y120.087 E.02645
G1 X142.95 Y120.854 E.02642
G1 X142.485 Y121.557 E.02643
G1 X141.557 Y122.485 E.04115
G1 X140.522 Y123.119 E.03806
G1 X139.274 Y123.524 E.04114
G1 X138.25 Y123.627 E.03227
G1 X111.75 Y123.627 E.83089
G1 X110.726 Y123.524 E.03227
G1 X109.913 Y123.299 E.02645
G1 X109.146 Y122.95 E.02642
G1 X108.443 Y122.485 E.02643
G1 X107.515 Y121.557 E.04115
G1 X106.881 Y120.522 E.03806
G1 X106.476 Y119.274 E.04114
G1 X106.373 Y118.25 E.03227
G1 X106.373 Y91.75 E.83089
G1 X106.476 Y90.726 E.03227
G1 X106.701 Y89.913 E.02645
G1 X107.05 Y89.146 E.02642
G1 X107.482 Y88.493 E.02455
M204 S1000
; printing object post sana.STL id:0 copy 0
;WIPE_START
G1 F8640
G1 X107.515 Y88.443 E-.01383
G1 X108.115 Y87.795 E-.20392
G1 X109.146 Y87.05 E-.29371
G1 X110.268 Y86.585 E-.28044
G1 X110.303 Y86.58 E-.0081
;WIPE_END
G1 Z.6 F720
G1 X139.439 Y91.111 F10800
G1 Z.2 F720
G1 E.8 F2100
M204 S800
;TYPE:Perimeter
;WIDTH:0.421025
G1 F1200
G1 X139.266 Y91.117 E.00544
;WIDTH:0.444381
G1 X139.039 Y91.244 E.00868
G1 X132.37 Y97.914 E.31486
G1 X132.239 Y98.143 E.00881
;WIDTH:0.425391
G1 X132.213 Y98.322 E.00575
;WIDTH:0.419999
G1 X132.213 Y111.678 E.41877
;WIDTH:0.420653
G1 X132.242 Y111.856 E.00566
;WIDTH:0.444379
G1 X132.37 Y112.086 E.00879
G1 X139.039 Y118.756 E.31486
G1 X139.265 Y118.885 E.00869
;WIDTH:0.425808
G1 X139.591 Y118.894 E.01038
;WIDTH:0.419999
G1 X139.938 Y118.756 E.01171
;WIDTH:0.469124
G1 X140.096 Y118.649 E.00676
;WIDTH:0.518249
G1 X140.254 Y118.542 E.00754
;WIDTH:0.560264
G1 X140.306 Y118.47 E.00382
;WIDTH:0.602278
G1 X140.357 Y118.398 E.0041
G1 X140.371 Y118.49 E.00433
;WIDTH:0.560264
G1 X140.385 Y118.583 E.00405
;WIDTH:0.518249
G1 X140.366 Y118.765 E.00723
;WIDTH:0.469124
G1 X140.346 Y118.948 E.00652
;WIDTH:0.419999
G1 X140.125 Y119.408 E.016
G1 X139.813 Y119.813 E.01603
G1 X139.408 Y120.125 E.01603
G1 X138.948 Y120.346 E.016
;WIDTH:0.464166
G1 X138.6 Y120.41 E.01239
;WIDTH:0.506912
G1 X138.495 Y120.397 E.00408
;WIDTH:0.549658
G1 X138.39 Y120.384 E.00446
;WIDTH:0.592404
G1 X138.285 Y120.371 E.00483
G1 X138.366 Y120.324 E.00428
;WIDTH:0.549658
G1 X138.447 Y120.277 E.00395
;WIDTH:0.506912
G1 X138.528 Y120.23 E.00361
;WIDTH:0.464166
G1 X138.7 Y120.041 E.00895
;WIDTH:0.419999
G1 X138.894 Y119.591 E.01536
;WIDTH:0.425808
G1 X138.885 Y119.265 E.01038
;WIDTH:0.444381
G1 X138.756 Y119.039 E.00869
G1 X132.086 Y112.37 E.31486
G1 X131.856 Y112.242 E.00879
;WIDTH:0.420653
G1 X131.678 Y112.213 E.00566
;WIDTH:0.419999
G1 X118.322 Y112.213 E.41877
;WIDTH:0.420653
G1 X118.144 Y112.242 E.00566
;WIDTH:0.444378
G1 X117.914 Y112.37 E.00879
G1 X111.244 Y119.039 E.31486
G1 X111.115 Y119.265 E.00869
;WIDTH:0.425808
G1 X111.106 Y119.591 E.01038
;WIDTH:0.419999
G1 X111.244 Y119.938 E.01171
;WIDTH:0.464165
G1 X111.472 Y120.23 E.01298
;WIDTH:0.506913
G1 X111.553 Y120.277 E.00361
;WIDTH:0.549661
G1 X111.634 Y120.324 E.00395
;WIDTH:0.592408
G1 X111.715 Y120.371 E.00428
G1 X111.615 Y120.385 E.00461
;WIDTH:0.549661
G1 X111.515 Y120.398 E.00425
;WIDTH:0.506913
G1 X111.415 Y120.412 E.0039
;WIDTH:0.464165
G1 X111.052 Y120.346 E.01292
;WIDTH:0.419999
G1 X110.592 Y120.125 E.016
G1 X110.187 Y119.813 E.01603
G1 X109.875 Y119.408 E.01603
G1 X109.654 Y118.948 E.016
;WIDTH:0.469128
G1 X109.635 Y118.771 E.00631
;WIDTH:0.518256
G1 X109.617 Y118.593 E.00707
;WIDTH:0.560272
G1 X109.63 Y118.496 E.00421
;WIDTH:0.602288
G1 X109.643 Y118.398 E.0046
G1 X109.695 Y118.47 E.00413
;WIDTH:0.560272
G1 X109.746 Y118.542 E.0038
;WIDTH:0.518256
G1 X109.853 Y118.621 E.00526
;WIDTH:0.469128
G1 X109.959 Y118.7 E.00469
;WIDTH:0.419999
G1 X110.409 Y118.894 E.01536
;WIDTH:0.425808
G1 X110.735 Y118.885 E.01038
;WIDTH:0.444379
G1 X110.961 Y118.756 E.00869
G1 X117.63 Y112.086 E.31486
G1 X117.758 Y111.856 E.00879
;WIDTH:0.420653
G1 X117.787 Y111.678 E.00566
;WIDTH:0.419999
G1 X117.787 Y98.322 E.41877
;WIDTH:0.42539
G1 X117.761 Y98.143 E.00575
;WIDTH:0.444379
G1 X117.63 Y97.914 E.00881
G1 X110.961 Y91.244 E.31486
G1 X110.734 Y91.117 E.00868
;WIDTH:0.421025
G1 X110.409 Y91.106 E.01022
;WIDTH:0.419999
G1 X110.062 Y91.244 E.01171
;WIDTH:0.464162
G1 X109.77 Y91.472 E.01298
;WIDTH:0.506912
G1 X109.723 Y91.553 E.00361
;WIDTH:0.549661
G1 X109.676 Y91.634 E.00395
;WIDTH:0.59241
G1 X109.629 Y91.715 E.00428
G1 X109.615 Y91.615 E.00461
;WIDTH:0.549661
G1 X109.602 Y91.515 E.00425
;WIDTH:0.506912
G1 X109.588 Y91.415 E.0039
;WIDTH:0.464162
G1 X109.654 Y91.052 E.01292
;WIDTH:0.419999
G1 X109.875 Y90.592 E.016
G1 X110.187 Y90.187 E.01603
G1 X110.592 Y89.875 E.01603
G1 X111.052 Y89.654 E.016
;WIDTH:0.469127
G1 X111.229 Y89.635 E.00631
;WIDTH:0.518254
G1 X111.407 Y89.617 E.00707
;WIDTH:0.56027
G1 X111.504 Y89.63 E.00421
;WIDTH:0.602286
G1 X111.602 Y89.643 E.0046
G1 X111.53 Y89.694 E.0041
;WIDTH:0.56027
G1 X111.458 Y89.746 E.00382
;WIDTH:0.518254
G1 X111.379 Y89.853 E.00526
;WIDTH:0.469127
G1 X111.3 Y89.959 E.00469
;WIDTH:0.419999
G1 X111.106 Y90.409 E.01536
;WIDTH:0.421025
G1 X111.117 Y90.734 E.01022
;WIDTH:0.44438
G1 X111.244 Y90.961 E.00868
G1 X117.914 Y97.63 E.31486
G1 X118.143 Y97.761 E.00881
;WIDTH:0.42539
G1 X118.322 Y97.787 E.00575
;WIDTH:0.419999
G1 X131.678 Y97.787 E.41877
;WIDTH:0.425391
G1 X131.857 Y97.761 E.00575
;WIDTH:0.444377
G1 X132.086 Y97.63 E.00881
G1 X138.756 Y90.961 E.31486
G1 X138.883 Y90.734 E.00868
;WIDTH:0.421025
G1 X138.894 Y90.409 E.01022
;WIDTH:0.419999
G1 X138.756 Y90.062 E.01171
;WIDTH:0.469125
G1 X138.649 Y89.904 E.00676
;WIDTH:0.51825
G1 X138.542 Y89.746 E.00754
;WIDTH:0.560264
G1 X138.47 Y89.694 E.00382
;WIDTH:0.602278
G1 X138.398 Y89.643 E.0041
G1 X138.49 Y89.629 E.00433
;WIDTH:0.560264
G1 X138.583 Y89.615 E.00405
;WIDTH:0.51825
G1 X138.765 Y89.634 E.00723
;WIDTH:0.469125
G1 X138.948 Y89.654 E.00652
;WIDTH:0.419999
G1 X139.408 Y89.875 E.016
G1 X139.813 Y90.187 E.01603
G1 X140.125 Y90.592 E.01603
G1 X140.346 Y91.052 E.016
;WIDTH:0.464164
G1 X140.41 Y91.4 E.01239
;WIDTH:0.50691
G1 X140.397 Y91.505 E.00408
;WIDTH:0.549656
G1 X140.384 Y91.61 E.00446
;WIDTH:0.592402
G1 X140.371 Y91.715 E.00483
G1 X140.324 Y91.634 E.00428
;WIDTH:0.549656
G1 X140.277 Y91.553 E.00395
;WIDTH:0.50691
G1 X140.23 Y91.472 E.00361
;WIDTH:0.464164
G1 X140.041 Y91.3 E.00895
;WIDTH:0.419999
G1 X139.591 Y91.106 E.01536
;WIDTH:0.421025
G1 X139.499 Y91.109 E.00289
M204 S1000
;WIPE_START
G1 F8640
G1 X139.439 Y91.111 E-.01386
G1 X139.266 Y91.117 E-.03997
;WIPE_END
G1 E-.74617 F2100
G1 Z.6 F720
G1 X109.165 Y118.285 F10800
G1 Z.2 F720
G1 E.8 F2100
M204 S800
;TYPE:External perimeter
;WIDTH:0.419999
G1 F1200
G1 X109.16 Y118.234 E.00161
G1 X109.16 Y91.784 E.82932
G1 X109.19 Y91.384 E.01258
G1 X109.305 Y90.908 E.01535
G1 X109.554 Y90.395 E.01788
G1 X109.873 Y89.974 E.01656
G1 X110.282 Y89.623 E.0169
G1 X110.755 Y89.369 E.01683
G1 X111.307 Y89.202 E.01808
G1 X111.766 Y89.16 E.01445
G1 X138.217 Y89.16 E.82935
G1 X138.616 Y89.19 E.01255
G1 X139.092 Y89.305 E.01535
G1 X139.605 Y89.554 E.01788
G1 X140.026 Y89.873 E.01656
G1 X140.377 Y90.282 E.0169
G1 X140.631 Y90.755 E.01683
G1 X140.798 Y91.307 E.01808
G1 X140.84 Y91.784 E.01501
G1 X140.84 Y118.216 E.82876
G1 X140.81 Y118.616 E.01258
G1 X140.695 Y119.092 E.01535
G1 X140.446 Y119.605 E.01788
G1 X140.127 Y120.026 E.01656
G1 X139.718 Y120.377 E.0169
G1 X139.245 Y120.631 E.01683
G1 X138.693 Y120.798 E.01808
G1 X138.234 Y120.84 E.01445
G1 X111.784 Y120.84 E.82932
G1 X111.384 Y120.81 E.01258
G1 X110.908 Y120.694 E.01536
G1 X110.395 Y120.446 E.01787
G1 X109.974 Y120.127 E.01656
G1 X109.623 Y119.718 E.0169
G1 X109.369 Y119.245 E.01683
G1 X109.202 Y118.693 E.01808
G1 X109.17 Y118.344 E.01099
M204 S1000
;WIPE_START
G1 F8640
G1 X109.165 Y118.285 E-.01367
G1 X109.16 Y118.234 E-.01183
G1 X109.16 Y114.88 E-.7745
;WIPE_END
G1 Z.6 F720
G1 X139.447 Y91.464 F10800
G1 Z.2 F720
G1 E.8 F2100
M204 S800
G1 F1200
G1 X139.828 Y91.611 E.0128
G1 X139.91 Y91.766 E.0055
G1 X139.91 Y118.234 E.82988
G1 X139.885 Y118.328 E.00305
G1 X139.794 Y118.408 E.0038
G1 X139.447 Y118.536 E.0116
G1 X139.315 Y118.48 E.0045
G1 X132.645 Y111.811 E.29574
G1 X132.59 Y111.678 E.00451
G1 X132.59 Y98.322 E.41877
G1 X132.634 Y98.201 E.00404
G1 X139.315 Y91.52 E.29625
G1 X139.391 Y91.488 E.00259
M204 S1000
;WIPE_START
G1 F8640
G1 X139.447 Y91.464 E-.01407
G1 X139.828 Y91.611 E-.09429
G1 X139.91 Y91.766 E-.04049
G1 X139.91 Y94.586 E-.65115
;WIPE_END
G1 Z.6 F720
G1 X140.371 Y91.715 F10800
G1 Z.2 F720
G1 E.8 F2100
M204 S800
;TYPE:Perimeter
;WIDTH:0.595842
G1 F1200
G1 X140.375 Y118.216 E1.2184
;WIDTH:0.602278
G1 X140.357 Y118.398 E.00851
M204 S1000
;WIPE_START
G1 F8640
G1 X140.375 Y118.216 E-.04223
;WIPE_END
G1 E-.75777 F2100
G1 Z.6 F720
G1 X111.611 Y119.828 F10800
G1 Z.2 F720
M73 Q1 S58
G1 E.8 F2100
M204 S800
;TYPE:External perimeter
;WIDTH:0.419999
G1 F1200
G1 X111.464 Y119.447 E.0128
G1 X111.52 Y119.315 E.0045
M73 P1 R58
G1 X118.189 Y112.645 E.29574
G1 X118.322 Y112.59 E.00451
G1 X131.678 Y112.59 E.41877
G1 X131.811 Y112.645 E.00451
G1 X138.48 Y119.315 E.29574
G1 X138.536 Y119.447 E.0045
G1 X138.389 Y119.828 E.0128
G1 X138.234 Y119.91 E.0055
G1 X111.766 Y119.91 E.82988
G1 X111.664 Y119.856 E.00362
M204 S1000
;WIPE_START
G1 F8640
G1 X111.611 Y119.828 E-.01384
G1 X111.464 Y119.447 E-.09429
G1 X111.52 Y119.315 E-.03311
G1 X113.537 Y117.298 E-.65876
;WIPE_END
G1 Z.6 F720
G1 X138.285 Y120.371 F10800
G1 Z.2 F720
G1 E.8 F2100
M204 S800
;TYPE:Perimeter
;WIDTH:0.595842
G1 F1200
G1 X111.715 Y120.371 E1.22157
M204 S1000
;WIPE_START
G1 F8640
G1 X115.18 Y120.371 E-.8
;WIPE_END
G1 Z.6 F720
G1 X110.172 Y118.389 F10800
G1 Z.2 F720
G1 E.8 F2100
M204 S800
;TYPE:External perimeter
;WIDTH:0.419999
G1 F1200
G1 X110.091 Y118.249 E.00507
G1 X110.09 Y118.216 E.00104
G1 X110.09 Y91.766 E.82932
G1 X110.172 Y91.611 E.0055
G1 X110.553 Y91.464 E.0128
G1 X110.685 Y91.52 E.0045
G1 X117.355 Y98.189 E.29574
G1 X117.41 Y98.322 E.00451
G1 X117.41 Y111.678 E.41877
G1 X117.355 Y111.811 E.00451
G1 X110.685 Y118.48 E.29574
G1 X110.553 Y118.536 E.0045
G1 X110.228 Y118.411 E.01092
M204 S1000
;WIPE_START
G1 F8640
G1 X110.172 Y118.389 E-.01389
G1 X110.091 Y118.249 E-.03735
G1 X110.09 Y118.216 E-.00762
G1 X110.09 Y115.006 E-.74114
;WIPE_END
G1 Z.6 F720
G1 X111.611 Y90.172 F10800
G1 Z.2 F720
G1 E.8 F2100
M204 S800
G1 F1200
G1 X111.751 Y90.091 E.00507
G1 X111.784 Y90.09 E.00104
G1 X138.234 Y90.09 E.82932
G1 X138.328 Y90.115 E.00305
G1 X138.408 Y90.206 E.0038
G1 X138.536 Y90.553 E.0116
G1 X138.48 Y90.685 E.0045
G1 X131.811 Y97.355 E.29574
G1 X131.678 Y97.41 E.00451
G1 X118.322 Y97.41 E.41877
G1 X118.189 Y97.355 E.00451
G1 X111.52 Y90.685 E.29574
G1 X111.464 Y90.553 E.0045
G1 X111.589 Y90.228 E.01092
M204 S1000
G1 X111.602 Y89.643 F10800
M204 S800
;TYPE:Perimeter
;WIDTH:0.602286
G1 F1200
G1 X111.784 Y89.625 E.00851
;WIDTH:0.595842
G1 X138.217 Y89.625 E1.21527
;WIDTH:0.602278
G1 X138.398 Y89.643 E.00846
M204 S1000
;WIPE_START
G1 F8640
G1 X138.217 Y89.625 E-.042
;WIPE_END
G1 E-.758 F2100
G1 Z.6 F720
G1 X109.643 Y118.398 F10800
G1 Z.2 F720
G1 E.8 F2100
M204 S800
;WIDTH:0.602288
G1 F1200
G1 X109.625 Y118.216 E.00851
;WIDTH:0.595844
G1 X109.629 Y91.715 E1.21841
M204 S1000
;WIPE_START
G1 F8640
G1 X109.628 Y95.18 E-.8
;WIPE_END
G1 Z.6 F720
G1 X110.643 Y90.043 F10800
G1 Z.2 F720
G1 E.8 F2100
M204 S800
;TYPE:Solid infill
;WIDTH:0.454499
G1 F1200
G1 X110.814 Y90.214 E.00828
G1 X110.775 Y90.328 E.00412
G1 X110.746 Y90.561 E.00804
G1 X110.78 Y90.761 E.00694
G1 X110.438 Y90.419 E.01655
G1 X110.237 Y90.651 E.01051
G1 X110.18 Y90.744 E.00373
G1 X110.377 Y90.94 E.00951
M204 S1000
;WIPE_START
G1 F8640
G1 X110.18 Y90.744 E-.06417
G1 X110.237 Y90.651 E-.02519
G1 X110.438 Y90.419 E-.07088
G1 X110.78 Y90.761 E-.11168
G1 X110.746 Y90.561 E-.04684
G1 X110.775 Y90.328 E-.05422
G1 X110.814 Y90.214 E-.02782
G1 X110.643 Y90.043 E-.05584
;WIPE_END
G1 E-.34336 F2100
G1 Z.6 F720
G1 X131.404 Y97.957 F10800
G1 Z.2 F720
G1 E.8 F2100
M204 S800
;WIDTH:0.421466
G1 F1200
G1 X131.874 Y98.427 E.02092
G1 X131.874 Y98.962 E.01684
G1 X131.038 Y98.126 E.03721
G1 X130.503 Y98.126 E.01684
G1 X131.874 Y99.497 E.06103
G1 X131.874 Y100.033 E.01687
G1 X129.967 Y98.126 E.08489
G1 X129.432 Y98.126 E.01684
G1 X131.874 Y100.568 E.1087
G1 X131.874 Y101.103 E.01684
G1 X128.897 Y98.126 E.13252
G1 X128.361 Y98.126 E.01687
G1 X131.874 Y101.639 E.15638
G1 X131.874 Y102.174 E.01684
G1 X127.826 Y98.126 E.18019
G1 X127.291 Y98.126 E.01684
G1 X131.874 Y102.709 E.20401
G1 X131.874 Y103.245 E.01687
G1 X126.755 Y98.126 E.22787
G1 X126.22 Y98.126 E.01684
G1 X131.874 Y103.78 E.25168
G1 X131.874 Y104.315 E.01684
G1 X125.685 Y98.126 E.2755
G1 X125.149 Y98.126 E.01687
G1 X131.874 Y104.851 E.29936
G1 X131.874 Y105.386 E.01684
G1 X124.614 Y98.126 E.32317
G1 X124.079 Y98.126 E.01684
G1 X131.874 Y105.921 E.34699
G1 X131.874 Y106.457 E.01687
M73 P1 R57
G1 X123.543 Y98.126 E.37085
G1 X123.008 Y98.126 E.01684
G1 X131.874 Y106.992 E.39466
G1 X131.874 Y107.527 E.01684
G1 X122.473 Y98.126 E.41848
G1 X121.937 Y98.126 E.01687
G1 X131.874 Y108.063 E.44234
G1 X131.874 Y108.598 E.01684
G1 X121.402 Y98.126 E.46615
G1 X120.867 Y98.126 E.01684
G1 X131.874 Y109.133 E.48997
G1 X131.874 Y109.669 E.01687
G1 X120.331 Y98.126 E.51383
G1 X119.796 Y98.126 E.01684
G1 X131.874 Y110.204 E.53764
G1 X131.874 Y110.739 E.01684
G1 X119.261 Y98.126 E.56146
G1 X118.725 Y98.126 E.01687
G1 X131.874 Y111.275 E.58532
G1 X131.874 Y111.689 E.01303
G1 X131.896 Y111.833 E.00459
G1 X118.17 Y98.107 E.611
G1 X118.096 Y98.096 E.00235
G1 X118.126 Y98.312 E.00686
G1 X118.126 Y98.598 E.009
G1 X131.402 Y111.874 E.59097
G1 X130.866 Y111.874 E.01687
G1 X118.126 Y99.134 E.56711
G1 X118.126 Y99.669 E.01684
G1 X130.331 Y111.874 E.54329
G1 X129.796 Y111.874 E.01684
G1 X118.126 Y100.204 E.51948
G1 X118.126 Y100.74 E.01687
M73 Q1 S57
G1 X129.26 Y111.874 E.49562
G1 X128.725 Y111.874 E.01684
M73 Q2 S57
G1 X118.126 Y101.275 E.47181
G1 X118.126 Y101.81 E.01684
M73 P2 R57
G1 X128.19 Y111.874 E.44799
G1 X127.654 Y111.874 E.01687
G1 X118.126 Y102.346 E.42413
